X:1
T:Marriage Morn, The
M:6/8
L:1/8
R:Jig
N:”Slow with Expresssion”
B:John Pringle – A Second Collection of Strathspeys, Reels & Jiggs &c. (c. 1805)
Z:AK/Fiddler’s Companion
K:Eb
B/A/|G2B A2c|{c}B2A ~G2B|~F2G ~E2B|~F2G E2B,|
AGA {G}F2B,|AGA {G}F2B,|BcB A2A|(GA).F {A}G2E|FG=A B2~B|
c2=B B2B|A2~A G2B|A2~A G2B|{c}(BA)G {G}~F2B|
{c}B=AB B,2 _d|_dc=B {B}~c2 _B/A/|GFG (A>B)c|B>cA G2~F|E3-E2|]

